Numix-GalliumOS/32/emblems/emblem-insync-error.svg

<?xml version="1.0" encoding="UTF-8" standalone="no"?>
<svg
   xmlns:dc="http://purl.org/dc/elements/1.1/"
   xmlns:cc="http://creativecommons.org/ns#"
   xmlns:rdf="http://www.w3.org/1999/02/22-rdf-syntax-ns#"
   xmlns:svg="http://www.w3.org/2000/svg"
   xmlns="http://www.w3.org/2000/svg"
   xmlns:sodipodi="http://sodipodi.sourceforge.net/DTD/sodipodi-0.dtd"
   xmlns:inkscape="http://www.inkscape.org/namespaces/inkscape"
   width="32"
   height="32"
   viewBox="0 0 32 32"
   id="svg2"
   version="1.1"
   inkscape:version="0.91 r"
   sodipodi:docname="emblem-insync-error.svg">
  <metadata
     id="metadata12">
    <rdf:RDF>
      <cc:Work
         rdf:about="">
        <dc:format>image/svg+xml</dc:format>
        <dc:type
           rdf:resource="http://purl.org/dc/dcmitype/StillImage" />
        <dc:title></dc:title>
      </cc:Work>
    </rdf:RDF>
  </metadata>
  <defs
     id="defs10" />
  <sodipodi:namedview
     pagecolor="#ffffff"
     bordercolor="#666666"
     borderopacity="1"
     objecttolerance="10"
     gridtolerance="10"
     guidetolerance="10"
     inkscape:pageopacity="0"
     inkscape:pageshadow="2"
     inkscape:window-width="1366"
     inkscape:window-height="747"
     id="namedview8"
     showgrid="false"
     inkscape:zoom="7.375"
     inkscape:cx="-12.40678"
     inkscape:cy="16"
     inkscape:window-x="0"
     inkscape:window-y="21"
     inkscape:window-maximized="1"
     inkscape:current-layer="svg2" />
  <path
     style="fill:#dc322f;stroke:#777;stroke-width:0.792;fill-opacity:1"
     d="M 43.605469 24 C 43.605469 34.828125 34.828125 43.599609 24 43.599609 C 13.171875 43.599609 4.394531 34.828125 4.394531 24 C 4.394531 13.171875 13.171875 4.394531 24 4.394531 C 34.828125 4.394531 43.605469 13.171875 43.605469 24 Z "
     transform="scale(.66667)"
     id="path4" />
  <path
     style="fill:#ffffff;fill-opacity:1"
     d="M 20.308594 8 L 16 12.308594 L 11.691406 8 L 8 11.691406 L 12.308594 16 L 8 20.308594 L 11.691406 24 L 16 19.691406 L 20.308594 24 L 24 20.308594 L 19.691406 16 L 24 11.691406 Z "
     id="path6" />
</svg>

<svg xmlns="http://www.w3.org/2000/svg" viewBox="0 0 32 32">
 <path d="m 43.605 24 c 0 10.828 -8.777 19.6 -19.605 19.6 c -10.828 0 -19.605 -8.771 -19.605 -19.6 c 0 -10.828 8.777 -19.605 19.605 -19.605 c 10.828 0 19.605 8.777 19.605 19.605 Z" transform="scale(.66667)" style="fill:#dc322f;fill-opacity:1;stroke:#777;stroke-width:0.792"/>
 <path d="m 20.309 8 l -4.309 4.309 l -4.309 -4.309 l -3.691 3.691 l 4.309 4.309 l -4.309 4.309 l 3.691 3.691 l 4.309 -4.309 l 4.309 4.309 l 3.691 -3.691 l -4.309 -4.309 l 4.309 -4.309 Z" style="fill:#fff;fill-opacity:1"/>
</svg>
